X:1
T:Dichterliebe, Op.48
T:Aus alten Märchen
T:15. Aus alten Märchen
T:Robert Schumann
T:Dichterliebe, Op.48
T:Heinrich Heine
T:OpenScore (CC0)
T:OpenScore (CC0)
T:OpenScore (CC0)
T:OpenScore (CC0)
T:OpenScore (CC0)
C:Robert Schumann
Z:Heinrich Heine
Z:OpenScore (CC0)
%%score 1 { ( 2 4 ) | ( 3 5 ) }
L:1/8
M:6/8
K:E
V:1 treble nm="Voice"
V:2 treble nm="Piano"
V:4 treble 
V:3 bass 
V:5 bass 
V:1
 x[Q:1/4=120]"^Lebendig." z | z6 | z6 | z6 | z6 | z6 | z6 | z6 | z2 z z2!mf! B | c2 d e2 B | %10
w: ||||||||Aus|al- ten Mär- chen|
 c3 B2 B | A2 A B2 B | G3 z2 G |!<(! (G2 B) B B B | (B2 e)!<)! e2 e | d2 e f2 F | B2 z z2 B | %17
w: winkt es her-|vor mit weis- ser|Hand, da|singt _ es und da|klingt _ es von|ei- nem Zau- ber-|land, wo|
 B2 B c2 c | c3 f2 B | B2 B c2 c | B3 z2 B | B2 B c2 c | c3 f2 B | B2 B c2 c | B3 z2 z | z6 | z6 | %27
w: bun- te Blu- men|blü- hen im|gold' nen A- bend-|licht, und|lieb- lich duf- tend|glü- hen, mit|bräut- li- chem Ge-|sicht.|||
 z6 | z2 z z2 B | A2 B =c2 e | =d3 B2 B | A2 B =c2 e | =d3 z2 ^d | ^c2 d e2 ^g | f3 d2 d | %35
w: |Und|grü- ne Bäu- me|sin- gen ur-|al- te Me- lo-|dei'n, die|Lüf- te heim- lich|klin- gen und|
 c2 d e2 g | f6 | z6 | z6 | z6 | z2 z z2!f! B | B2 B B2 B | E3 B2 B, | C2 C F2 F | B,3 z2 D | %45
w: Vö- gel schmet- tern|drein.||||Und|Ne- bel- bil- der|stei- gen wohl|aus der Erd' her-|vor und|
!<(! D2 F F2 B!<)! | (B2 d) d2 d | c2 d c2 c | F3 z2!p! F | F2 F G2 G | G3 c2 F | F2 F G2 G | %52
w: tan- zen luft'- gen|Rei- * gen im|wun- der- li- chen|Chor. und|blau- e Fun- ken|bren- nen an|je- dem Blatt und|
 F3- F2 F | F2 F G2 G | G3 c2 F | F2 F G2 G | F3- F2!p! F |!<(! F2 ^B d2 f!<)! | f3 G2 G | %59
w: Reis, _ und|ro- te Lich- ter|ren- nen im|ir- ren, wir- ren|Kreis, _ und|lau- te Quel- len|bre- chen aus|
 G2 ^B d2 G | e3 z2 G | G2 ^^c ^e2 g | g3 ^A2 A | ^A2 ^^c ^e2 A | f3- f2 z |!>(! f6- | %66
w: wil- dem Mar- mor-|stein, und|selt- sam in den|Bä- chen strahlt|fort der Wie- der-|schein. _|Ach!|
 f3!>)! z2 z | B6 | z2 z z2[Q:1/4=120]"^Mit innigster Empfindung." B | c3 d3 | e3- e2 B | c6 | %72
w: _|Ach!|Ach,|könnt' ich|dort- * hin|kom-|
 B3- B2 B | A3- A2 A | B3- B2 B | G6 | z2 z z2 B | c3 d3 | e3- e2 B | c6 | B3- B2 B | A3- A2 A | %82
w: men, _ und|dort _ mein|Herz _ er-|freu'n,|und|al- ler|Qual _ ent-|nom-|men _ und|frei _ und|
 B3- B2 B | G6 | z2 z G3 | F3 G3 | A3- A2 c | B6 | G3 z2 G | F3 G3 | A3- A2 c | B6- | B2 z z2 c | %93
w: se- * lig|sein!|Ach,|je- nes|Land _ der|Won-|ne, das|seh' ich|oft * im|Traum,|_ doch|
 B3- B2 c | (=d3 f2) e | e3 e z z | z2 z z2 c | c3- c2 c | F3- F2 F | B6- | B3- B2 B | B3- B2 B | %102
w: kommt _ die|Mor- * gen-|son- ne,|zer-|fliesst's * wie|ei- * tel|Traum,|_ _ zer-|fliesst's _ wie|
[Q:1/4=100]"^Adagio" B3- (BA) F | E6 | z2 z !fermata!z2[Q:1/4=120]"_Tempo I." z | z6 | z6 | z6 | %108
w: ei- * * tel|Traum.|||||
 z6 | z6 | z6 | z6 | z6 | !fermata!z6 |] %114
w: ||||||
V:2
 x!mf! [egb] | [eac']2 [fabd'] [gbe']2 [egb] | [eac']3 [egb]3 | [cea]3 [dfb]3 | %4
 [Beg]3 z2!<(! [EG] | [EG]2 [GB] [GB]2 [Be] | [Be]2 [Bg]!<)! [Bg]2 [Bf] | %7
 [Bf]2 [Beg] [Bdf]2 [cef^a] | [dfb]2 b b2 [egb] | [eac']2 [fabd'] [gbe']2 [egb] | [eac']3 [egb]3 | %11
 [cea]3 [dfb]3 | [Beg]3 z2 [EG] |!<(! [EG]2 [GB] [GB]2 [Be] | [Be]2!<)! [Bg] [Bg]2 [Bg] | %15
 [Bf]2 [Beg] [Bdf]2 [cef^a] |!>(! [dfb]2 B B2 B!>)! | .B z z .[Bc] z z | .[Ac] z z .[Af] z z | %19
 .[GB] z z .[E=Gc] z z | .[DFB] z B B2 B | .B z z .[Bc] z z | .[Ac] z z .[Af] z z | %23
 .[GB] z z .[E=Gc] z z |!<(! .[DFB] z B B2!<)!!f! [=GB=d] | [=G=ce]2 [Ac=df] [Bd=g]2 [GBd] | %26
 !>![=G=ce]3 [GB=d]3 | [E=G=c]3 [FA=d]3 | [=D=GB]3- [DGB]2 [DGB] | [FA]2 [=GB] [A=c]2 [ce] | %30
 [B=d]3 [=D=GB]2 [DGB] |"_cresc." [=DFA]2 [D=GB] [DA=c]2 [ce] | [B=d]3- [Bd]2 [FB^d] | %33
 [^A^c]2 [Bd] [Fce]2 [e^g] | [df]3 [FBd]2 [FBd] |"_cresc." [F^Ac]2 [FBd] [Fce]2 [eg] | %36
 [df]3- [Bdf]2!f! [Bdfb] | [cefc']2 [dfbd'] [egbe']2 [Begb] | [ceac']3 [Begb]3 | [cea]3 [dfb]3 | %40
 [Beg]3- [Beg]2 [Bdf] | [eg]2 [cef^a] [dfb]2 [Bdf] | [Beg]3 [Bdf]3 | [GBe]3 [^Acf]3 | %44
 [FBd]3- [FBd]2 [B,D] |!<(! [B,D]2 [DF] [DF]2 [FB]!<)! | [FB]2 [FBd] [FBd]2 [FBdf] | %47
 [F^Acf]2 [FBdf] [FAcf]2 [GBc^e] |!>(! [F^Acf]2 F F2 F!>)! |!p! .F z z .[FG] z z | %50
 .[EG] z z .[E=Gc] z z | .[DF] z z .[B,=D^G] z z | .[^A,CF] z F F2 F | .F z z .[FG] z z | %54
 .[EG] z z .[E=Gc] z z | .[DF] z z .[B,=D^G] z z | [^A,CF]2 F F2 F | (F2 ^B d2) [FGBdfg] | %58
 [FG^Bdfg]2 [FGBdfg] [FGBdfg]2 [FGBdfg] | [FG^Bdfg]2 [FGBdfg] [FGBdfg]2 [FGBdfg] | %60
 [ceg]2 [Gceg] [Gceg]2 [G^A^^c^eg^a] | [G^A^^c^eg^a]2 [GAcega] [GAcega]2 [GAcega] | %62
 [G^A^^c^eg^a]2 [GAcega] [GAcega]2 [GAcega] | [G^A^^c^eg^a]2 [GAcega] [GAcega]2 [GAcega] | %64
 [df^a]2!<(! [^Adfa] [Adfa]2 [=ABdf=ab]!<)! | [ABdfab]2 [ABdfab] [ABdfab]2 [ABdfab] | %66
 [ABdfab]2 [ABdfab] [ABdfab]2 [ABdfab] |!>(! [ABdfab]2 [ABdfab] [ABdfab]2 [ABdfab]!>)! | %68
 [ABdfab]2 [ABdfab] [ABdfab]2!p! [EGB] | [EAc]3 [FABd]3 | [GBe]3- [GBe]2 [EGB] | [EAc]6 | [EGB]6 | %73
 [CEA]6 | [DFB]6 | [B,EG]6- | [B,EG]3- [B,EG]2 [EGB] | [EAc]3 [FABd]3 | [GBe]3- [GBe]2 [EGB] | %79
 [EAc]6 | [EGB]6 | [CEA]6 | [DFB]6 | [B,EG]6- | [B,EG]2 z [B,EG]3 | [DF]3 [EG]3 | %86
 [FA]3- [FA]2 [Ac] | (([GB]6 | [EG]3)) z2 [B,EG] | [B,DF]3 [B,EG]3 | [B,FA]3 [Ac]2 [GB] | [GB]6- | %92
 [GB]3 z2 [EAc] | [GB]3- [GB]2 [Ac] | ([B=d]3 [df]2 [ce] | [ce]6) |!p! [Ec]6- | [Ec]6 | [DF]6 | %99
 [^^C^EB]6 | [DFB]6 |!p! [^^C^EB]6 | [A,DF]6 | [G,E]6- | [G,E] z z !fermata!z2!pp! .[ceg] | %105
 .[eac']2 .[fabd'] .[gbe']2 .[egb] | [eac']3 [egb]3 | [cea]3 z2 z | [dfb]3 z2 z | [Beg]3 z2 z | %110
 [DFB]6 | [B,EG]6 | [B,EG]6 | !fermata![B,EG]6 |] %114
V:3
 x[K:treble]!ped! [EGB]!ped-up! | [EAc]2 [EBd] [EBe]2 [EGB] | [EAc]2 A, [EGB]2 E, | %3
 [CEA]2 F, [DFB]2[K:bass] B,, | [B,EG]2 E, E,2 [E,G,] | [E,G,]2 [G,B,] [G,B,]2 [B,E] | %6
 [B,E]2[K:treble] [EG] [EG]2 [DF] | [DF]2 [EG] F2 [F^A] | [B,FB]2 B B2 [EGB] | %9
 [EAc]2 [EBd] [EBe]2 [EGB] | [EAc]2 A, [EGB]2 E, | [CEA]2 F, [DFB]2[K:bass] B,, | %12
 [B,EG]2 E, E,2 [E,G,] | [E,G,]2 [G,B,] [G,B,]2 [B,E] | [B,E]2[K:treble] [EG] [EG]2 [EG] | %15
 [DF]2 [EG] F2 [F^A] | [B,FB]2[K:bass] B, B,2 B, | .B, z .D, .B, z .^E, | .B, z .F, .A, z .D, | %19
 .B, z .E, .B, z .^A,, | .B, z B,, B,2 B, | .B, z .E, .B, z .^E, | .B, z .E, .B, z .D, | %23
 .B, z .E, .B, z .^A,, | .B, z B,, B,2 [=G,B,=D] | [=G,=CE]2 [G,=DF] [G,D=G]2 [E,G,B,] | %26
 [=G,=CE]2 =C, [G,B,=D]2 =G,, | [E,=G,=C]2 A,, [F,A,=D]2 =D, | [=D,=G,B,]2 =G,, G,,2 [D,G,B,] | %29
 [F,A,]2 [=G,B,] [A,=C]2 [CE] | [B,=D]3 [=D,=G,B,]2 [D,G,B,] | [F,A,]2 [=G,B,] [A,=C]2 [CE] | %32
 [B,=D]3- [=G,B,D]2 [F,B,^D] | [^A,^C]2 [B,D] [CE]2 [E^G] | [DF]3 [F,B,D]2 [F,B,D] | %35
 [^A,C]2 [B,D] [CE]2 [EG] | [DF]3- [DF]2 [B,DF] | [^A,CEF]2 [=A,B,DF] [G,B,E]2 [E,B,E] | %38
 [CE]3 E2 E, |[K:treble] [CEA]2 F, [DFB]2 B, | [EG]2[K:bass] E, E,2[K:treble] [B,DF] | %41
 [B,EG]2 [B,F^A] [B,FB]2 [B,DF] | [B,EG]2 E, [B,DF]2[K:bass] B,, | [G,B,E]2 C, [^A,CF]2 F, | %44
 [B,D]2 B,, B,,2 [D,F,] | [D,F,]2 [F,B,] [F,B,]2 [B,D] | [B,D]2 [B,D] [B,D]2 [B,D] | %47
 [^A,C]2 [B,D] [A,C]2 C | [F,C]2 F, F,2 F, | .F, z .^A,, .F, z .^B,, | .F, z .C, .F, z .^A,, | %51
 .F, z .B,, .F, z .^E,, | F, z [F,,F,] [F,,F,]2 F, | .F, z .^A,, .F, z .^B,, | %54
 .F, z .C, .F, z .^A,, | .F, z .B,, .F, z .^E,, | F,2 [F,,F,] [F,,F,]2 F, | %57
!ped! (F,2!ped-up! ^B, D2) [F,,,G,,] | ([F,,,G,,]2 ^B,, D,2) [G,,G,] | ([G,,G,]2 ^B, D2) G, | %60
 E2 [G,CE] [G,CE]2 G, |!ped! (G,2 ^^C2!ped-up! ^E2) | ([A,,,^A,,]2 ^^C, ^E,2) [A,,^A,] | %63
 ([^A,,^A,]2 ^^C ^E2) A, | F2 [^A,DF] [A,DF]2 [B,F] |!ped! [B,F]6 | F,,2 B,, B,,2 F, | %67
 F,2 B, B,2 F | F2 z z2!ped-up! [E,G,B,] | [E,A,C]3 [E,F,A,B,D]3 | %70
 [E,G,B,E]3- [E,G,B,E]2 [E,G,B,] | [E,A,C]3- [E,A,C]2 A,, | [E,G,B,]3- [E,G,B,]2 E,, | %73
 [C,E,A,]3- [C,E,A,]2 F,, | [D,F,B,]3- [D,F,B,]2 B,,, | [B,,E,G,]3- [B,,E,G,]2 E,,- | %76
 E,,3- E,,2 [E,G,B,] | [E,A,C]3 [E,F,A,B,D]3 | [E,G,B,E]3- [E,G,B,E]2 [E,G,B,] | %79
 [E,A,C]3- [E,A,C]2 A,, | [E,G,B,]3- [E,G,B,]2 E,, | [C,E,A,]3- [C,E,A,]2 F,, | %82
 [D,F,B,]3- [D,F,B,]2 B,,, | [B,,E,G,]6- | [B,,E,G,]2 z [B,,E,G,]3 | [D,F,]3 [E,G,]3 | %86
 [F,A,]3- [F,A,]2 [A,C] | ([E,G,B,]6 | [E,G,]3) z2 [B,,E,G,] | [B,,D,F,]3 [B,,E,G,]3 | %90
 [B,,F,A,]3 [A,C]2 [G,B,] | [E,G,B,]6- | [E,G,B,]3 z2 [E,A,C] | [G,B,-]3 [G,B,]2 [A,C] | %94
 ([B,=D]3 [DF]2 [CE]) | [A,CE]6 |!ped! [^A,C=G]6- | [A,CG]6!ped-up! | [=A,=C]6 | [G,B,]6 | %100
 [A,B,]6 | G,6 | B,,6- | B,,6- | B,, z z !fermata!z2[K:treble] .[EGB] | %105
!ped! .[EAc]2!ped-up! .[EBd] .[EBe]2 .[EGB] | [EAc]2 A, [EGB]2 E, | [CEA]2 F, z2 z | %108
 [DFB]2[K:bass] B,, z2 z | [B,EG]2 E, z2 z | [D,F,B,]6 | [B,,E,G,]6 | [B,,E,G,]6 | %113
 !fermata![B,,E,G,]6 |] %114
V:4
 x2 | x6 | x6 | x6 | x6 | x6 | x6 | x6 | x6 | x6 | x6 | x6 | x6 | x6 | x6 | x6 | x6 | x6 | x6 | %19
 x6 | x6 | x6 | x6 | x6 | x6 | x6 | x6 | x6 | x6 | =D3- D2 x | z z =D x3 | x6 | z z =G G2 x | %33
 F3- x3 | z z F x3 | x6 | z z B x3 | x6 | x6 | x6 | x6 | x6 | x6 | x6 | x6 | x6 | x6 | x6 | x6 | %49
 x6 | x6 | x6 | x6 | x6 | x6 | x6 | x6 | x6 | x6 | x6 | x6 | x6 | x6 | x6 | x6 | x6 | x6 | x6 | %68
 x6 | x6 | x6 | x6 | x6 | x6 | x6 | x6 | x6 | x6 | x6 | x6 | x6 | x6 | x6 | x6 | x6 | B,6 | x6 | %87
 x6 | x6 | x6 | x6 | x6 | x6 | E6 | x6 | x6 | x6 | x6 | x6 | x6 | x6 | x6 | x6 | x6 | x6 | x6 | %106
 x6 | x6 | x6 | x6 | x6 | x6 | x6 | x6 |] %114
V:5
 x[K:treble] x | x6 | x6 | x5[K:bass] x | x6 | x6 | x2[K:treble] x4 | x6 | x6 | x6 | x6 | %11
 x5[K:bass] x | x6 | x6 | x2[K:treble] x4 | x6 | x2[K:bass] x4 | x6 | x6 | x6 | x6 | x6 | x6 | x6 | %24
 x6 | x6 | x6 | x6 | x6 | =D,3- D,2 x | z z =D, x3 | =D,3- D,2 x | z z =G, x3 | F,3- F,2 x | %34
 z z F, x3 | F,3- F,2 x | z z B, B,2 x | x6 | A,2 C x3 |[K:treble] x6 | x2[K:bass] x3[K:treble] x | %41
 x6 | x5[K:bass] x | x6 | x6 | x6 | x6 | x6 | x6 | x6 | x6 | x6 | x6 | x6 | x6 | x6 | x6 | %57
 F,3- F,2 x | x6 | x6 | x6 | G,3- G,2 [G,,,^A,,] | x6 | x6 | x6 | [B,F]2 B,,, B,,,2 F,, | x6 | x6 | %68
 x6 | x6 | x6 | x6 | x6 | x6 | x6 | x6 | x6 | x6 | x6 | x6 | x6 | x6 | x6 | z2 z z2 E,,- | %84
 E,,2 x x3 | B,,6 | x6 | x6 | x6 | x6 | x6 | x6 | x6 | E,6 | x6 | x6 | x6 | x6 | x6 | x6 | x6 | %101
 x6 | x6 | x6 | x5[K:treble] x | x6 | x6 | x6 | x2[K:bass] x4 | x6 | z z B,,, z2 z | z z E,, z2 z | %112
 z z E,, z2 z | z z E,, z2 !fermata!z |] %114

